movel(p[0.456672, -0.303459, 0.244695, -2.376226, -2.006926, -0.098291], a=5, v=2, r=0.001)
movel(p[0.456672, -0.303459, 0.144695, -2.376226, -2.006926, -0.098291], a=5, v=2, r=0.001)
movep(p[0.458335, -0.293622, 0.145369, -2.376226, -2.006926, -0.098291], a=5, v=0.013, r=0.001)
movep(p[0.459711, -0.294252, 0.149032, -2.376226, -2.006926, -0.098291], a=5, v=0.013, r=0.001)
movep(p[0.461372, -0.295280, 0.152442, -2.564030, -1.771438, -0.102498], a=5, v=0.013, r=0.001)
movep(p[0.463381, -0.296845, 0.155443, -2.666097, -1.621074, -0.104581], a=5, v=0.013, r=0.001)
movep(p[0.465646, -0.298925, 0.157939, -2.769687, -1.446325, -0.106496], a=5, v=0.013, r=0.001)
movep(p[0.467965, -0.301675, 0.159603, -2.769687, -1.446325, -0.106496], a=5, v=0.013, r=0.001)
movep(p[0.470159, -0.304702, 0.160891, -2.838469, -1.313894, -0.107619], a=5, v=0.013, r=0.001)
movep(p[0.472313, -0.307816, 0.162062, -2.838469, -1.313894, -0.107619], a=5, v=0.013, r=0.001)
movep(p[0.474468, -0.310930, 0.163233, -2.838469, -1.313894, -0.107619], a=5, v=0.013, r=0.001)
movep(p[0.476622, -0.314044, 0.164404, -2.838469, -1.313894, -0.107619], a=5, v=0.013, r=0.001)
movep(p[0.478776, -0.317157, 0.165575, -2.838469, -1.313894, -0.107619], a=5, v=0.013, r=0.001)
movep(p[0.480931, -0.320271, 0.166746, -2.838469, -1.313894, -0.107619], a=5, v=0.013, r=0.001)
movep(p[0.483085, -0.323385, 0.167917, -2.838469, -1.313894, -0.107619], a=5, v=0.013, r=0.001)
movep(p[0.485239, -0.326499, 0.169088, -2.838469, -1.313894, -0.107619], a=5, v=0.013, r=0.001)
movep(p[0.487394, -0.329613, 0.170259, -2.838469, -1.313894, -0.107619], a=5, v=0.013, r=0.001)
movep(p[0.489548, -0.332727, 0.171430, -2.838469, -1.313894, -0.107619], a=5, v=0.013, r=0.001)
movep(p[0.491702, -0.335840, 0.172601, -2.838469, -1.313894, -0.107619], a=5, v=0.013, r=0.001)
movep(p[0.493857, -0.338954, 0.173771, -2.838469, -1.313894, -0.107619], a=5, v=0.013, r=0.001)
movep(p[0.496011, -0.342068, 0.174942, -2.838469, -1.313894, -0.107619], a=5, v=0.013, r=0.001)
movep(p[0.498165, -0.345182, 0.176113, -2.838469, -1.313894, -0.107619], a=5, v=0.013, r=0.001)
movep(p[0.500320, -0.348296, 0.177284, -2.838469, -1.313894, -0.107619], a=5, v=0.013, r=0.001)
movep(p[0.502474, -0.351409, 0.178455, -2.838469, -1.313894, -0.107619], a=5, v=0.013, r=0.001)
movep(p[0.504628, -0.354523, 0.179626, -2.838469, -1.313894, -0.107619], a=5, v=0.013, r=0.001)
movep(p[0.506782, -0.357637, 0.180797, -2.838469, -1.313894, -0.107619], a=5, v=0.013, r=0.001)
movep(p[0.508937, -0.360751, 0.181968, -2.838469, -1.313894, -0.107619], a=5, v=0.013, r=0.001)
movep(p[0.511091, -0.363865, 0.183139, -2.838469, -1.313894, -0.107619], a=5, v=0.013, r=0.001)
movep(p[0.512937, -0.367181, 0.184166, 2.991945, 0.951774, 0.109523], a=5, v=0.013, r=0.001)
movep(p[0.514283, -0.370823, 0.184961, 2.991945, 0.951774, 0.109523], a=5, v=0.013, r=0.001)
movep(p[0.514890, -0.374717, 0.185281, 3.077188, 0.623333, 0.109430], a=5, v=0.013, r=0.001)
movep(p[0.515434, -0.378633, 0.185561, 3.077188, 0.623333, 0.109430], a=5, v=0.013, r=0.001)
movep(p[0.515977, -0.382549, 0.185842, 3.077188, 0.623333, 0.109430], a=5, v=0.013, r=0.001)
movep(p[0.517400, -0.386227, 0.186224, 2.984000, 0.976405, 0.109477], a=5, v=0.013, r=0.001)
movep(p[0.519392, -0.389604, 0.186785, -2.880482, -1.224556, -0.108229], a=5, v=0.013, r=0.001)
movep(p[0.521681, -0.392632, 0.187902, -2.800143, -1.389572, -0.107010], a=5, v=0.013, r=0.001)
movep(p[0.524000, -0.395622, 0.189080, -2.800143, -1.389572, -0.107010], a=5, v=0.013, r=0.001)
movep(p[0.526318, -0.398613, 0.190258, -2.800143, -1.389572, -0.107010], a=5, v=0.013, r=0.001)
movep(p[0.528637, -0.401604, 0.191435, -2.800143, -1.389572, -0.107010], a=5, v=0.013, r=0.001)
movep(p[0.530956, -0.404595, 0.192613, -2.800143, -1.389572, -0.107010], a=5, v=0.013, r=0.001)
movep(p[0.533274, -0.407585, 0.193791, -2.800143, -1.389572, -0.107010], a=5, v=0.013, r=0.001)
movep(p[0.535593, -0.410576, 0.194969, -2.800143, -1.389572, -0.107010], a=5, v=0.013, r=0.001)
movep(p[0.537912, -0.413567, 0.196147, -2.800143, -1.389572, -0.107010], a=5, v=0.013, r=0.001)
movep(p[0.540230, -0.416558, 0.197325, -2.800143, -1.389572, -0.107010], a=5, v=0.013, r=0.001)
movep(p[0.542549, -0.419548, 0.198502, -2.800143, -1.389572, -0.107010], a=5, v=0.013, r=0.001)
movep(p[0.544868, -0.422539, 0.199680, -2.800143, -1.389572, -0.107010], a=5, v=0.013, r=0.001)
movep(p[0.547337, -0.425355, 0.200845, -2.422234, -1.953392, -0.099359], a=5, v=0.013, r=0.001)
movep(p[0.550866, -0.426490, 0.201904, -1.829362, -2.498616, -0.084289], a=5, v=0.013, r=0.001)
movep(p[0.554000, -0.424476, 0.202730, -0.556482, -3.027474, -0.046133], a=5, v=0.013, r=0.001)
movep(p[0.555155, -0.420792, 0.202796, 0.167021, -3.068655, -0.022101], a=5, v=0.013, r=0.001)
movep(p[0.555039, -0.416856, 0.202472, 0.493459, -3.032223, -0.010761], a=5, v=0.013, r=0.001)
movep(p[0.554799, -0.412917, 0.202106, 0.493459, -3.032223, -0.010761], a=5, v=0.013, r=0.001)
movep(p[0.554492, -0.408992, 0.201672, 0.568326, -3.018940, -0.008116], a=5, v=0.013, r=0.001)
movep(p[0.554060, -0.405092, 0.201112, 0.568326, -3.018940, -0.008116], a=5, v=0.013, r=0.001)
movep(p[0.553628, -0.401192, 0.200551, 0.568326, -3.018940, -0.008116], a=5, v=0.013, r=0.001)
movep(p[0.553196, -0.397293, 0.199991, 0.568326, -3.018940, -0.008116], a=5, v=0.013, r=0.001)
movep(p[0.552544, -0.393439, 0.199345, 0.677081, -2.996282, -0.004242], a=5, v=0.013, r=0.001)
movep(p[0.551834, -0.389597, 0.198678, 0.677081, -2.996282, -0.004242], a=5, v=0.013, r=0.001)
movep(p[0.551124, -0.385755, 0.198011, 0.677081, -2.996282, -0.004242], a=5, v=0.013, r=0.001)
movep(p[0.550415, -0.381914, 0.197343, 0.677081, -2.996282, -0.004242], a=5, v=0.013, r=0.001)
movep(p[0.549478, -0.378149, 0.196595, 0.908943, -2.934272, 0.004139], a=5, v=0.013, r=0.001)
movep(p[0.548193, -0.374503, 0.195722, 0.908943, -2.934272, 0.004139], a=5, v=0.013, r=0.001)
movep(p[0.546527, -0.371040, 0.194760, 1.081063, -2.875600, 0.010475], a=5, v=0.013, r=0.001)
movep(p[0.544780, -0.367622, 0.193780, 1.169930, -2.840855, 0.013787], a=5, v=0.013, r=0.001)
movep(p[0.542877, -0.364296, 0.192767, 1.169930, -2.840855, 0.013787], a=5, v=0.013, r=0.001)
movep(p[0.540975, -0.360969, 0.191755, 1.169930, -2.840855, 0.013787], a=5, v=0.013, r=0.001)
movep(p[0.539073, -0.357643, 0.190742, 1.169930, -2.840855, 0.013787], a=5, v=0.013, r=0.001)
movep(p[0.537170, -0.354317, 0.189730, 1.169930, -2.840855, 0.013787], a=5, v=0.013, r=0.001)
movep(p[0.535268, -0.350990, 0.188717, 1.169930, -2.840855, 0.013787], a=5, v=0.013, r=0.001)
movep(p[0.533365, -0.347664, 0.187705, 1.169930, -2.840855, 0.013787], a=5, v=0.013, r=0.001)
movep(p[0.531463, -0.344338, 0.186692, 1.169930, -2.840855, 0.013787], a=5, v=0.013, r=0.001)
movep(p[0.529561, -0.341012, 0.185680, 1.169930, -2.840855, 0.013787], a=5, v=0.013, r=0.001)
movep(p[0.527658, -0.337685, 0.184667, 1.169930, -2.840855, 0.013787], a=5, v=0.013, r=0.001)
movep(p[0.525704, -0.334398, 0.183627, 1.194224, -2.830810, 0.014697], a=5, v=0.013, r=0.001)
movep(p[0.523749, -0.331111, 0.182586, 1.194224, -2.830810, 0.014697], a=5, v=0.013, r=0.001)
movep(p[0.521793, -0.327825, 0.181546, 1.194224, -2.830810, 0.014697], a=5, v=0.013, r=0.001)
movep(p[0.519838, -0.324538, 0.180505, 1.194224, -2.830810, 0.014697], a=5, v=0.013, r=0.001)
movep(p[0.517883, -0.321251, 0.179464, 1.194224, -2.830810, 0.014697], a=5, v=0.013, r=0.001)
movep(p[0.515928, -0.317965, 0.178424, 1.194224, -2.830810, 0.014697], a=5, v=0.013, r=0.001)
movep(p[0.513973, -0.314678, 0.177383, 1.194224, -2.830810, 0.014697], a=5, v=0.013, r=0.001)
movep(p[0.512018, -0.311391, 0.176342, 1.194224, -2.830810, 0.014697], a=5, v=0.013, r=0.001)
movep(p[0.510063, -0.308104, 0.175302, 1.194224, -2.830810, 0.014697], a=5, v=0.013, r=0.001)
movep(p[0.508069, -0.304847, 0.174241, 1.218432, -2.820563, 0.015606], a=5, v=0.013, r=0.001)
movep(p[0.506062, -0.301601, 0.173173, 1.218432, -2.820563, 0.015606], a=5, v=0.013, r=0.001)
movep(p[0.504055, -0.298354, 0.172105, 1.218432, -2.820563, 0.015606], a=5, v=0.013, r=0.001)
movep(p[0.502048, -0.295108, 0.171037, 1.218432, -2.820563, 0.015606], a=5, v=0.013, r=0.001)
movep(p[0.500041, -0.291862, 0.169969, 1.218432, -2.820563, 0.015606], a=5, v=0.013, r=0.001)
movep(p[0.498034, -0.288615, 0.168902, 1.218432, -2.820563, 0.015606], a=5, v=0.013, r=0.001)
movep(p[0.496027, -0.285369, 0.167834, 1.218432, -2.820563, 0.015606], a=5, v=0.013, r=0.001)
movep(p[0.494019, -0.282122, 0.166766, 1.218432, -2.820563, 0.015606], a=5, v=0.013, r=0.001)
movep(p[0.492012, -0.278876, 0.165698, 1.218432, -2.820563, 0.015606], a=5, v=0.013, r=0.001)
movep(p[0.489969, -0.275659, 0.164610, 1.243238, -2.809812, 0.016540], a=5, v=0.013, r=0.001)
movep(p[0.487910, -0.272455, 0.163512, 1.243238, -2.809812, 0.016540], a=5, v=0.013, r=0.001)
movep(p[0.485851, -0.269252, 0.162414, 1.243238, -2.809812, 0.016540], a=5, v=0.013, r=0.001)
movep(p[0.483791, -0.266048, 0.161317, 1.243238, -2.809812, 0.016540], a=5, v=0.013, r=0.001)
movep(p[0.481732, -0.262845, 0.160219, 1.243238, -2.809812, 0.016540], a=5, v=0.013, r=0.001)
movep(p[0.479672, -0.259641, 0.159122, 1.243238, -2.809812, 0.016540], a=5, v=0.013, r=0.001)
movep(p[0.477613, -0.256438, 0.158024, 1.243238, -2.809812, 0.016540], a=5, v=0.013, r=0.001)
movep(p[0.475554, -0.253234, 0.156927, 1.243238, -2.809812, 0.016540], a=5, v=0.013, r=0.001)
movep(p[0.473494, -0.250031, 0.155829, 1.243238, -2.809812, 0.016540], a=5, v=0.013, r=0.001)
movep(p[0.471399, -0.246856, 0.154716, 1.269611, -2.798103, 0.017535], a=5, v=0.013, r=0.001)
movep(p[0.469284, -0.243698, 0.153592, 1.269611, -2.798103, 0.017535], a=5, v=0.013, r=0.001)
movep(p[0.467169, -0.240540, 0.152469, 1.269611, -2.798103, 0.017535], a=5, v=0.013, r=0.001)
movep(p[0.465054, -0.237382, 0.151346, 1.269611, -2.798103, 0.017535], a=5, v=0.013, r=0.001)
movep(p[0.462939, -0.234224, 0.150223, 1.269611, -2.798103, 0.017535], a=5, v=0.013, r=0.001)
movep(p[0.460824, -0.231066, 0.149100, 1.269611, -2.798103, 0.017535], a=5, v=0.013, r=0.001)
movep(p[0.458709, -0.227908, 0.147977, 1.269611, -2.798103, 0.017535], a=5, v=0.013, r=0.001)
movep(p[0.456589, -0.224753, 0.146853, 1.305342, -2.781772, 0.018888], a=5, v=0.013, r=0.001)
movep(p[0.454399, -0.221658, 0.145700, 1.305342, -2.781772, 0.018888], a=5, v=0.013, r=0.001)
movep(p[0.452209, -0.218562, 0.144548, 1.305342, -2.781772, 0.018888], a=5, v=0.013, r=0.001)
movep(p[0.450019, -0.215466, 0.143396, 1.305342, -2.781772, 0.018888], a=5, v=0.013, r=0.001)
movep(p[0.447829, -0.212370, 0.142244, 1.305342, -2.781772, 0.018888], a=5, v=0.013, r=0.001)
movep(p[0.445639, -0.209274, 0.141091, 1.305342, -2.781772, 0.018888], a=5, v=0.013, r=0.001)
movep(p[0.443449, -0.206178, 0.139939, 1.305342, -2.781772, 0.018888], a=5, v=0.013, r=0.001)
movep(p[0.441259, -0.203083, 0.138787, 1.305342, -2.781772, 0.018888], a=5, v=0.013, r=0.001)
movep(p[0.439069, -0.199987, 0.137635, 1.305342, -2.781772, 0.018888], a=5, v=0.013, r=0.001)
movep(p[0.436879, -0.196891, 0.136482, 1.305342, -2.781772, 0.018888], a=5, v=0.013, r=0.001)
movep(p[0.434658, -0.193830, 0.135297, 1.333582, -2.768480, 0.019961], a=5, v=0.013, r=0.001)
movep(p[0.432416, -0.190794, 0.134088, 1.333582, -2.768480, 0.019961], a=5, v=0.013, r=0.001)
movep(p[0.430174, -0.187757, 0.132879, 1.333582, -2.768480, 0.019961], a=5, v=0.013, r=0.001)
movep(p[0.427932, -0.184721, 0.131671, 1.333582, -2.768480, 0.019961], a=5, v=0.013, r=0.001)
movep(p[0.425690, -0.181684, 0.130462, 1.333582, -2.768480, 0.019961], a=5, v=0.013, r=0.001)
movep(p[0.423448, -0.178648, 0.129254, 1.333582, -2.768480, 0.019961], a=5, v=0.013, r=0.001)
movep(p[0.421206, -0.175611, 0.128045, 1.333582, -2.768480, 0.019961], a=5, v=0.013, r=0.001)
movep(p[0.418947, -0.172609, 0.126783, 1.361589, -2.754956, 0.021028], a=5, v=0.013, r=0.001)
movep(p[0.416669, -0.169651, 0.125455, 1.361589, -2.754956, 0.021028], a=5, v=0.013, r=0.001)
movep(p[0.414390, -0.166692, 0.124127, 1.361589, -2.754956, 0.021028], a=5, v=0.013, r=0.001)
movep(p[0.412112, -0.163733, 0.122799, 1.361589, -2.754956, 0.021028], a=5, v=0.013, r=0.001)
movep(p[0.409834, -0.160775, 0.121471, 1.361589, -2.754956, 0.021028], a=5, v=0.013, r=0.001)
movep(p[0.407555, -0.157816, 0.120143, 1.361589, -2.754956, 0.021028], a=5, v=0.013, r=0.001)
movep(p[0.405266, -0.154913, 0.118719, 1.390377, -2.740696, 0.022128], a=5, v=0.013, r=0.001)
movep(p[0.402967, -0.152054, 0.117218, 1.390377, -2.740696, 0.022128], a=5, v=0.013, r=0.001)
movep(p[0.400669, -0.149196, 0.115717, 1.390377, -2.740696, 0.022128], a=5, v=0.013, r=0.001)
movep(p[0.398370, -0.146337, 0.114216, 1.390377, -2.740696, 0.022128], a=5, v=0.013, r=0.001)
movep(p[0.396072, -0.143495, 0.112686, 1.419525, -2.725880, 0.023245], a=5, v=0.013, r=0.001)
movep(p[0.393772, -0.140756, 0.110977, 1.419525, -2.725880, 0.023245], a=5, v=0.013, r=0.001)
movep(p[0.391473, -0.138017, 0.109268, 1.419525, -2.725880, 0.023245], a=5, v=0.013, r=0.001)
movep(p[0.389174, -0.135279, 0.107560, 1.419525, -2.725880, 0.023245], a=5, v=0.013, r=0.001)
movep(p[0.386887, -0.132607, 0.105740, 1.456567, -2.706497, 0.024670], a=5, v=0.013, r=0.001)
movep(p[0.384624, -0.130056, 0.103720, 1.456567, -2.706497, 0.024670], a=5, v=0.013, r=0.001)
movep(p[0.382361, -0.127505, 0.101701, 1.456567, -2.706497, 0.024670], a=5, v=0.013, r=0.001)
movep(p[0.380131, -0.125065, 0.099526, 1.507234, -2.678952, 0.026628], a=5, v=0.013, r=0.001)
movep(p[0.377948, -0.122782, 0.097133, 1.507234, -2.678952, 0.026628], a=5, v=0.013, r=0.001)
movep(p[0.375764, -0.120499, 0.094739, 1.507234, -2.678952, 0.026628], a=5, v=0.013, r=0.001)
movep(p[0.373640, -0.118422, 0.092124, 1.574736, -2.640345, 0.029253], a=5, v=0.013, r=0.001)
movep(p[0.371545, -0.116442, 0.089404, 1.574736, -2.640345, 0.029253], a=5, v=0.013, r=0.001)
movep(p[0.369449, -0.114462, 0.086685, 1.574736, -2.640345, 0.029253], a=5, v=0.013, r=0.001)
movep(p[0.367353, -0.112482, 0.083966, 1.574736, -2.640345, 0.029253], a=5, v=0.013, r=0.001)
movep(p[0.365253, -0.110542, 0.081221, 1.631307, -2.606248, 0.031470], a=5, v=0.013, r=0.001)
movep(p[0.363143, -0.108713, 0.078409, 1.631307, -2.606248, 0.031470], a=5, v=0.013, r=0.001)
movep(p[0.361033, -0.106885, 0.075596, 1.631307, -2.606248, 0.031470], a=5, v=0.013, r=0.001)
movep(p[0.358923, -0.105056, 0.072783, 1.631307, -2.606248, 0.031470], a=5, v=0.013, r=0.001)
movep(p[0.356813, -0.103227, 0.069970, 1.631307, -2.606248, 0.031470], a=5, v=0.013, r=0.001)
movep(p[0.354703, -0.101399, 0.067157, 1.631307, -2.606248, 0.031470], a=5, v=0.013, r=0.001)
movep(p[0.352593, -0.099570, 0.064345, 1.631307, -2.606248, 0.031470], a=5, v=0.013, r=0.001)
movep(p[0.350483, -0.097741, 0.061532, 1.631307, -2.606248, 0.031470], a=5, v=0.013, r=0.001)
movep(p[0.348346, -0.095990, 0.058691, 1.682266, -2.574118, 0.033479], a=5, v=0.013, r=0.001)
movep(p[0.346198, -0.094271, 0.055838, 1.682266, -2.574118, 0.033479], a=5, v=0.013, r=0.001)
movep(p[0.344050, -0.092552, 0.052985, 1.682266, -2.574118, 0.033479], a=5, v=0.013, r=0.001)
movep(p[0.341902, -0.090833, 0.050132, 1.682266, -2.574118, 0.033479], a=5, v=0.013, r=0.001)
movep(p[0.339754, -0.089114, 0.047279, 1.682266, -2.574118, 0.033479], a=5, v=0.013, r=0.001)
movep(p[0.337606, -0.087395, 0.044426, 1.682266, -2.574118, 0.033479], a=5, v=0.013, r=0.001)
movep(p[0.335446, -0.085709, 0.041563, 1.721296, -2.548572, 0.035026], a=5, v=0.013, r=0.001)
movep(p[0.333270, -0.084073, 0.038683, 1.721296, -2.548572, 0.035026], a=5, v=0.013, r=0.001)
movep(p[0.331094, -0.082437, 0.035802, 1.721296, -2.548572, 0.035026], a=5, v=0.013, r=0.001)
movep(p[0.328917, -0.080801, 0.032922, 1.721296, -2.548572, 0.035026], a=5, v=0.013, r=0.001)
movep(p[0.326741, -0.079165, 0.030042, 1.721296, -2.548572, 0.035026], a=5, v=0.013, r=0.001)
movep(p[0.324564, -0.077530, 0.027162, 1.721296, -2.548572, 0.035026], a=5, v=0.013, r=0.001)
movep(p[0.322388, -0.075894, 0.024282, 1.721296, -2.548572, 0.035026], a=5, v=0.013, r=0.001)
movep(p[0.320212, -0.074258, 0.021401, 1.721296, -2.548572, 0.035026], a=5, v=0.013, r=0.001)
movep(p[0.318035, -0.072622, 0.018521, 1.721296, -2.548572, 0.035026], a=5, v=0.013, r=0.001)
movep(p[0.321756, -0.063364, 0.017847, 1.721296, -2.548572, 0.035026], a=5, v=0.013, r=0.001)
movel(p[0.321756, -0.063364, 0.117847, 1.721296, -2.548572, 0.035026], a=5, v=2, r=0.001)
