movel(p[758.742, 1211.896, 338.375, -170.0, 0.0, 179.27], a=1.0, v=2.0, r=3.0)
movel(p[758.078, 1159.805, 42.933, -170.0, 0.0, 179.27], a=1.0, v=2.0, r=3.0)
movel(p[756.706, 1052.119, 42.933, -170.0, 0.0, 179.27], a=1.0, v=2.0, r=3.0)
movel(p[711.247, 1003.713, 42.933, -170.0, 0.0, 134.27], a=1.0, v=2.0, r=3.0)
movel(p[676.571, 969.91, 42.933, -170.0, 0.0, 134.27], a=1.0, v=2.0, r=3.0)
movel(p[595.43, 968.014, 42.931, -170.0, 0.0, 89.27], a=1.0, v=2.0, r=3.0)
movel(p[561.777, 968.443, 42.931, -170.0, 0.0, 89.27], a=1.0, v=2.0, r=3.0)
movel(p[512.456, 1014.838, 42.931, -170.0, 0.0, 44.27], a=1.0, v=2.0, r=3.0)
movel(p[479.566, 1048.576, 42.931, -170.0, 0.0, 44.27], a=1.0, v=2.0, r=3.0)
movel(p[477.47, 1113.736, 42.929, -170.0, 0.0, -0.73], a=1.0, v=2.0, r=3.0)
movel(p[478.1, 1163.373, 42.933, -170.0, 0.0, -0.73], a=1.0, v=2.0, r=3.0)
movel(p[558.235, 1245.582, 42.933, -170.0, 0.0, -45.73], a=1.0, v=2.0, r=3.0)
movel(p[673.03, 1247.048, 42.933, -170.0, 0.0, -90.73], a=1.0, v=2.0, r=3.0)
movel(p[716.28, 1206.877, 42.933, -170.0, 0.0, -135.73], a=1.0, v=2.0, r=3.0)
movel(p[755.24, 1166.913, 42.931, -170.0, 0.0, -135.73], a=1.0, v=2.0, r=3.0)
movel(p[718.875, 1204.216, 338.373, -170.0, 0.0, -135.73], a=1.0, v=2.0, r=3.0)
